resources/icons/d.svg

<svg viewBox="0 0 15 14" fill="none" xmlns="http://www.w3.org/2000/svg">
  <path
    d="M1.10482 14H8.04167C9.48611 14 10.7269 13.7197 11.7639 13.1592C12.8056 12.5986 13.6042 11.7943 14.1597 10.7461C14.7199 9.69792 15 8.44466 15 6.98633C15 5.53255 14.7199 4.28385 14.1597 3.24023C13.6042 2.19661 12.8102 1.39681 11.7778 0.840821C10.7454 0.280274 9.51389 0 8.08333 0H5C3.89543 0 3 0.89543 3 2V8.95969C3 9.37894 3.48497 9.61203 3.81235 9.35012L7.10957 6.71235C7.40482 6.47614 7.2378 6 6.85969 6H6.40694C6.18603 6 6.00694 5.82091 6.00694 5.6V3.53613C6.00694 2.98385 6.45466 2.53613 7.00694 2.53613H7.92361C8.8125 2.53613 9.56018 2.69108 10.1667 3.00098C10.7731 3.31087 11.2292 3.79395 11.5347 4.4502C11.8449 5.10645 12 5.95182 12 6.98633C12 8.02995 11.8449 8.88216 11.5347 9.54297C11.2292 10.1992 10.7708 10.6846 10.1597 10.999C9.55324 11.3089 8.80556 11.4639 7.91667 11.4639H6L3.14209 11.4983C3.05018 11.4994 2.96145 11.5321 2.89083 11.591L0.848746 13.2927C0.56134 13.5322 0.730701 14 1.10482 14Z"
    fill="currentColor" />
</svg>

<svg viewBox="0 0 15 14" fill="none" xmlns="http://www.w3.org/2000/svg"><path d="M1.105 14h6.937c1.444 0 2.685-.28 3.722-.84a5.727 5.727 0 0 0 2.396-2.414c.56-1.048.84-2.301.84-3.76 0-1.453-.28-2.702-.84-3.746a5.715 5.715 0 0 0-2.382-2.4C10.745.28 9.514 0 8.083 0H5a2 2 0 0 0-2 2v6.96a.5.5 0 0 0 .812.39L7.11 6.712A.4.4 0 0 0 6.86 6h-.453a.4.4 0 0 1-.4-.4V3.536a1 1 0 0 1 1-1h.917c.888 0 1.636.155 2.243.465.606.31 1.062.793 1.368 1.45.31.655.465 1.5.465 2.535 0 1.044-.155 1.896-.465 2.557-.306.656-.764 1.142-1.375 1.456-.607.31-1.354.465-2.243.465H6l-2.858.034a.4.4 0 0 0-.251.093L.849 13.293a.4.4 0 0 0 .256.707Z" fill="currentColor"/></svg>
